images/16758242.svg

<?xml version="1.0" encoding="UTF-8"?>
<svg xmlns="http://www.w3.org/2000/svg" xmlns:xlink="http://www.w3.org/1999/xlink" width="300pt" height="300pt" viewBox="0 0 300 300" version="1.1">
<defs>
<g>
<symbol overflow="visible" id="glyph0-0">
<path style="stroke:none;" d="M 0.546875 1.9375 L 0.546875 -7.75 L 6.046875 -7.75 L 6.046875 1.9375 Z M 1.171875 1.328125 L 5.4375 1.328125 L 5.4375 -7.140625 L 1.171875 -7.140625 Z M 1.171875 1.328125 "/>
</symbol>
<symbol overflow="visible" id="glyph0-1">
<path style="stroke:none;" d="M 1.078125 -8.015625 L 2.546875 -8.015625 L 6.09375 -1.3125 L 6.09375 -8.015625 L 7.15625 -8.015625 L 7.15625 0 L 5.6875 0 L 2.125 -6.703125 L 2.125 0 L 1.078125 0 Z M 1.078125 -8.015625 "/>
</symbol>
<symbol overflow="visible" id="glyph0-2">
<path style="stroke:none;" d="M 4.328125 -7.28125 C 3.546875 -7.28125 2.921875 -6.984375 2.453125 -6.390625 C 1.992188 -5.804688 1.765625 -5.007812 1.765625 -4 C 1.765625 -2.988281 1.992188 -2.1875 2.453125 -1.59375 C 2.921875 -1.007812 3.546875 -0.71875 4.328125 -0.71875 C 5.117188 -0.71875 5.742188 -1.007812 6.203125 -1.59375 C 6.660156 -2.1875 6.890625 -2.988281 6.890625 -4 C 6.890625 -5.007812 6.660156 -5.804688 6.203125 -6.390625 C 5.742188 -6.984375 5.117188 -7.28125 4.328125 -7.28125 Z M 4.328125 -8.171875 C 5.453125 -8.171875 6.351562 -7.789062 7.03125 -7.03125 C 7.707031 -6.28125 8.046875 -5.269531 8.046875 -4 C 8.046875 -2.738281 7.707031 -1.726562 7.03125 -0.96875 C 6.351562 -0.21875 5.453125 0.15625 4.328125 0.15625 C 3.203125 0.15625 2.300781 -0.21875 1.625 -0.96875 C 0.957031 -1.71875 0.625 -2.726562 0.625 -4 C 0.625 -5.269531 0.957031 -6.28125 1.625 -7.03125 C 2.300781 -7.789062 3.203125 -8.171875 4.328125 -8.171875 Z M 4.328125 -8.171875 "/>
</symbol>
</g>
</defs>
<g id="surface39341">
<rect x="0" y="0" width="300" height="300" style="fill:rgb(100%,100%,100%);fill-opacity:1;stroke:none;"/>
<path style="fill:none;stroke-width:1.2;stroke-linecap:butt;stroke-linejoin:miter;stroke:rgb(0%,0%,0%);stroke-opacity:1;stroke-miterlimit:10;" d="M 236.089844 102.152344 L 223.675781 125.867188 "/>
<path style="fill:none;stroke-width:1.2;stroke-linecap:butt;stroke-linejoin:miter;stroke:rgb(0%,0%,0%);stroke-opacity:1;stroke-miterlimit:10;" d="M 223.675781 125.867188 L 196.933594 126.972656 "/>
<path style="fill:none;stroke-width:1.2;stroke-linecap:butt;stroke-linejoin:miter;stroke:rgb(0%,0%,0%);stroke-opacity:1;stroke-miterlimit:10;" d="M 221.261719 132.269531 L 199.867188 133.15625 "/>
<path style="fill:none;stroke-width:1.2;stroke-linecap:butt;stroke-linejoin:miter;stroke:rgb(0%,0%,0%);stroke-opacity:1;stroke-miterlimit:10;" d="M 238.007812 148.472656 L 223.675781 125.867188 "/>
<path style="fill:none;stroke-width:1.2;stroke-linecap:butt;stroke-linejoin:miter;stroke:rgb(0%,0%,0%);stroke-opacity:1;stroke-miterlimit:10;" d="M 196.933594 126.972656 L 184.519531 150.6875 "/>
<path style="fill:none;stroke-width:1.2;stroke-linecap:butt;stroke-linejoin:miter;stroke:rgb(0%,0%,0%);stroke-opacity:1;stroke-miterlimit:10;" d="M 184.519531 150.6875 L 198.847656 173.296875 "/>
<path style="fill:none;stroke-width:1.2;stroke-linecap:butt;stroke-linejoin:miter;stroke:rgb(0%,0%,0%);stroke-opacity:1;stroke-miterlimit:10;" d="M 180.632812 156.320312 L 192.097656 174.40625 "/>
<path style="fill:none;stroke-width:1.2;stroke-linecap:butt;stroke-linejoin:miter;stroke:rgb(0%,0%,100%);stroke-opacity:1;stroke-miterlimit:10;" d="M 157.90625 147.796875 L 171.214844 149.242188 "/>
<path style="fill:none;stroke-width:1.2;stroke-linecap:butt;stroke-linejoin:miter;stroke:rgb(0%,0%,0%);stroke-opacity:1;stroke-miterlimit:10;" d="M 171.214844 149.242188 L 184.519531 150.6875 "/>
<path style="fill:none;stroke-width:1.2;stroke-linecap:butt;stroke-linejoin:miter;stroke:rgb(0%,0%,0%);stroke-opacity:1;stroke-miterlimit:10;" d="M 198.847656 173.296875 L 190.109375 198.59375 "/>
<path style="fill:none;stroke-width:1.2;stroke-linecap:butt;stroke-linejoin:miter;stroke:rgb(0%,0%,0%);stroke-opacity:1;stroke-miterlimit:10;" d="M 198.847656 173.296875 L 212.21875 172.742188 "/>
<path style="fill:none;stroke-width:1.2;stroke-linecap:butt;stroke-linejoin:miter;stroke:rgb(0%,0%,100%);stroke-opacity:1;stroke-miterlimit:10;" d="M 212.21875 172.742188 L 225.59375 172.1875 "/>
<path style="fill:none;stroke-width:1.2;stroke-linecap:butt;stroke-linejoin:miter;stroke:rgb(0%,0%,0%);stroke-opacity:1;stroke-miterlimit:10;" d="M 190.109375 198.59375 L 164.878906 207.535156 "/>
<path style="fill:none;stroke-width:1.2;stroke-linecap:butt;stroke-linejoin:miter;stroke:rgb(0%,0%,0%);stroke-opacity:1;stroke-miterlimit:10;" d="M 164.878906 207.535156 L 142.15625 193.382812 "/>
<path style="fill:none;stroke-width:1.2;stroke-linecap:butt;stroke-linejoin:miter;stroke:rgb(0%,0%,0%);stroke-opacity:1;stroke-miterlimit:10;" d="M 142.15625 193.382812 L 139.054688 166.796875 "/>
<path style="fill:none;stroke-width:1.2;stroke-linecap:butt;stroke-linejoin:miter;stroke:rgb(0%,0%,0%);stroke-opacity:1;stroke-miterlimit:10;" d="M 139.054688 166.796875 L 148.480469 157.296875 "/>
<path style="fill:none;stroke-width:1.2;stroke-linecap:butt;stroke-linejoin:miter;stroke:rgb(0%,0%,100%);stroke-opacity:1;stroke-miterlimit:10;" d="M 148.480469 157.296875 L 157.90625 147.796875 "/>
<path style="fill:none;stroke-width:1.2;stroke-linecap:butt;stroke-linejoin:miter;stroke:rgb(0%,0%,100%);stroke-opacity:1;stroke-miterlimit:10;" d="M 157.90625 147.796875 L 153.4375 135.179688 "/>
<path style="fill:none;stroke-width:1.2;stroke-linecap:butt;stroke-linejoin:miter;stroke:rgb(0%,0%,0%);stroke-opacity:1;stroke-miterlimit:10;" d="M 153.4375 135.179688 L 148.96875 122.566406 "/>
<path style=" stroke:none;fill-rule:nonzero;fill:rgb(100%,100%,100%);fill-opacity:1;" d="M 153.90625 141.296875 L 161.90625 141.296875 L 161.90625 154.296875 L 153.90625 154.296875 Z M 153.90625 141.296875 "/>
<g style="fill:rgb(0%,0%,100%);fill-opacity:1;">
  <use xlink:href="#glyph0-1" x="153.90625" y="151.198242"/>
</g>
<path style=" stroke:none;fill-rule:nonzero;fill:rgb(0%,0%,0%);fill-opacity:1;" d="M 122.648438 117.695312 L 148.109375 127.210938 L 149.828125 117.921875 Z M 122.648438 117.695312 "/>
<path style="fill:none;stroke-width:1.2;stroke-linecap:butt;stroke-linejoin:miter;stroke:rgb(0%,0%,0%);stroke-opacity:1;stroke-miterlimit:10;" d="M 122.648438 117.695312 L 113.707031 92.464844 "/>
<path style="fill:none;stroke-width:1.2;stroke-linecap:butt;stroke-linejoin:miter;stroke:rgb(0%,0%,0%);stroke-opacity:1;stroke-miterlimit:10;" d="M 122.648438 117.695312 L 113.957031 127.871094 "/>
<path style="fill:none;stroke-width:1.2;stroke-linecap:butt;stroke-linejoin:miter;stroke:rgb(100%,0%,0%);stroke-opacity:1;stroke-miterlimit:10;" d="M 113.957031 127.871094 L 105.269531 138.050781 "/>
<path style="fill:none;stroke-width:1.2;stroke-linecap:butt;stroke-linejoin:miter;stroke:rgb(100%,0%,0%);stroke-opacity:1;stroke-miterlimit:10;" d="M 105.269531 138.050781 L 92.109375 135.617188 "/>
<path style="fill:none;stroke-width:1.2;stroke-linecap:butt;stroke-linejoin:miter;stroke:rgb(0%,0%,100%);stroke-opacity:1;stroke-miterlimit:10;" d="M 92.109375 135.617188 L 78.949219 133.179688 "/>
<path style=" stroke:none;fill-rule:nonzero;fill:rgb(100%,100%,100%);fill-opacity:1;" d="M 101.269531 131.550781 L 110.269531 131.550781 L 110.269531 144.550781 L 101.269531 144.550781 Z M 101.269531 131.550781 "/>
<g style="fill:rgb(100%,0%,0%);fill-opacity:1;">
  <use xlink:href="#glyph0-2" x="101.269531" y="141.452148"/>
</g>
<path style="fill:none;stroke-width:1.2;stroke-linecap:butt;stroke-linejoin:miter;stroke:rgb(0%,0%,100%);stroke-opacity:1;stroke-miterlimit:10;" d="M 78.949219 133.179688 L 70.257812 143.359375 "/>
<path style="fill:none;stroke-width:1.2;stroke-linecap:butt;stroke-linejoin:miter;stroke:rgb(0%,0%,0%);stroke-opacity:1;stroke-miterlimit:10;" d="M 70.257812 143.359375 L 61.570312 153.535156 "/>
<path style="fill:none;stroke-width:1.2;stroke-linecap:butt;stroke-linejoin:miter;stroke:rgb(0%,0%,100%);stroke-opacity:1;stroke-miterlimit:10;" d="M 72.421875 131.125 L 65.46875 139.269531 "/>
<path style="fill:none;stroke-width:1.2;stroke-linecap:butt;stroke-linejoin:miter;stroke:rgb(0%,0%,0%);stroke-opacity:1;stroke-miterlimit:10;" d="M 65.46875 139.269531 L 58.519531 147.410156 "/>
<path style=" stroke:none;fill-rule:nonzero;fill:rgb(100%,100%,100%);fill-opacity:1;" d="M 74.949219 126.679688 L 82.949219 126.679688 L 82.949219 139.679688 L 74.949219 139.679688 Z M 74.949219 126.679688 "/>
<g style="fill:rgb(0%,0%,100%);fill-opacity:1;">
  <use xlink:href="#glyph0-1" x="74.949219" y="136.581055"/>
</g>
<path style="fill:none;stroke-width:1.2;stroke-linecap:butt;stroke-linejoin:miter;stroke:rgb(0%,0%,0%);stroke-opacity:1;stroke-miterlimit:10;" d="M 61.570312 153.535156 L 35.25 148.664062 "/>
<path style="fill:none;stroke-width:1.2;stroke-linecap:butt;stroke-linejoin:miter;stroke:rgb(0%,0%,0%);stroke-opacity:1;stroke-miterlimit:10;" d="M 61.570312 153.535156 L 70.511719 178.765625 "/>
<path style="fill:none;stroke-width:1.2;stroke-linecap:butt;stroke-linejoin:miter;stroke:rgb(0%,0%,100%);stroke-opacity:1;stroke-miterlimit:10;" d="M 225.59375 172.1875 L 231.800781 160.332031 "/>
<path style="fill:none;stroke-width:1.2;stroke-linecap:butt;stroke-linejoin:miter;stroke:rgb(0%,0%,0%);stroke-opacity:1;stroke-miterlimit:10;" d="M 231.800781 160.332031 L 238.007812 148.472656 "/>
<path style="fill:none;stroke-width:1.2;stroke-linecap:butt;stroke-linejoin:miter;stroke:rgb(0%,0%,100%);stroke-opacity:1;stroke-miterlimit:10;" d="M 221.253906 166.894531 L 226.21875 157.410156 "/>
<path style="fill:none;stroke-width:1.2;stroke-linecap:butt;stroke-linejoin:miter;stroke:rgb(0%,0%,0%);stroke-opacity:1;stroke-miterlimit:10;" d="M 226.21875 157.410156 L 231.183594 147.925781 "/>
<path style=" stroke:none;fill-rule:nonzero;fill:rgb(100%,100%,100%);fill-opacity:1;" d="M 221.59375 165.6875 L 229.59375 165.6875 L 229.59375 178.6875 L 221.59375 178.6875 Z M 221.59375 165.6875 "/>
<g style="fill:rgb(0%,0%,100%);fill-opacity:1;">
  <use xlink:href="#glyph0-1" x="221.59375" y="175.588867"/>
</g>
<path style="fill:none;stroke-width:1.2;stroke-linecap:butt;stroke-linejoin:miter;stroke:rgb(0%,0%,0%);stroke-opacity:1;stroke-miterlimit:10;" d="M 238.007812 148.472656 L 264.75 147.367188 "/>
</g>
</svg>

<svg xmlns="http://www.w3.org/2000/svg" xmlns:xlink="http://www.w3.org/1999/xlink" width="300pt" height="300pt" viewBox="0 0 300 300"><defs><symbol overflow="visible"><path d="M.547 1.938V-7.75h5.5v9.688zm.625-.61h4.266v-8.47H1.171zm0 0"/></symbol><symbol overflow="visible" id="a"><path d="M1.078-8.016h1.47l3.546 6.704v-6.704h1.062V0H5.688L2.124-6.703V0H1.078zm0 0"/></symbol><symbol overflow="visible" id="b"><path d="M4.328-7.28c-.78 0-1.406.296-1.875.89-.46.585-.687 1.382-.687 2.39 0 1.012.226 1.813.687 2.406.47.586 1.094.875 1.875.875.79 0 1.414-.288 1.875-.874.457-.593.688-1.394.688-2.406 0-1.008-.23-1.805-.687-2.39-.46-.594-1.086-.89-1.875-.89zm0-.892c1.125 0 2.024.383 2.703 1.14C7.708-6.28 8.048-5.27 8.048-4c0 1.262-.34 2.273-1.016 3.03C6.353-.22 5.454.157 4.33.157S2.3-.22 1.625-.97c-.668-.75-1-1.757-1-3.03 0-1.27.332-2.28 1-3.03.676-.76 1.578-1.142 2.703-1.142zm0 0"/></symbol></defs><g><path fill="#fff" d="M0 0h300v300H0z"/><path d="M236.09 102.152l-12.414 23.715M223.676 125.867l-26.742 1.106M221.262 132.27l-21.395.886M238.008 148.473l-14.332-22.606M196.934 126.973l-12.414 23.715M184.52 150.688l14.328 22.61M180.633 156.32l11.465 18.086" stroke-width="1.2" stroke="#000" stroke-miterlimit="10" fill="none"/><path d="M157.906 147.797l13.31 1.445" stroke-width="1.2" stroke="#00f" stroke-miterlimit="10" fill="none"/><path d="M171.215 149.242l13.305 1.446M198.848 173.297l-8.74 25.297M198.848 173.297l13.37-.555" stroke-width="1.2" stroke="#000" stroke-miterlimit="10" fill="none"/><path d="M212.22 172.742l13.374-.554" stroke-width="1.2" stroke="#00f" stroke-miterlimit="10" fill="none"/><path d="M190.11 198.594l-25.23 8.94M164.88 207.535l-22.724-14.152M142.156 193.383l-3.1-26.586M139.055 166.797l9.425-9.5" stroke-width="1.2" stroke="#000" stroke-miterlimit="10" fill="none"/><path d="M148.48 157.297l9.426-9.5M157.906 147.797l-4.47-12.617" stroke-width="1.2" stroke="#00f" stroke-miterlimit="10" fill="none"/><path d="M153.438 135.18l-4.47-12.614" stroke-width="1.2" stroke="#000" stroke-miterlimit="10" fill="none"/><path d="M153.906 141.297h8v13h-8zm0 0" fill="#fff"/><use xlink:href="#a" x="153.906" y="151.198" fill="#00f"/><path d="M122.648 117.695l25.46 9.516 1.72-9.288zm0 0"/><path d="M122.648 117.695l-8.94-25.23M122.648 117.695l-8.69 10.176" stroke-width="1.2" stroke="#000" stroke-miterlimit="10" fill="none"/><path d="M113.957 127.87l-8.687 10.18M105.27 138.05l-13.16-2.433" stroke-width="1.2" stroke="#f00" stroke-miterlimit="10" fill="none"/><path d="M92.11 135.617l-13.16-2.437" stroke-width="1.2" stroke="#00f" stroke-miterlimit="10" fill="none"/><path d="M101.27 131.55h9v13h-9zm0 0" fill="#fff"/><use xlink:href="#b" x="101.27" y="141.452" fill="#f00"/><path d="M78.95 133.18l-8.692 10.18" stroke-width="1.2" stroke="#00f" stroke-miterlimit="10" fill="none"/><path d="M70.258 143.36l-8.688 10.175" stroke-width="1.2" stroke="#000" stroke-miterlimit="10" fill="none"/><path d="M72.422 131.125l-6.953 8.145" stroke-width="1.2" stroke="#00f" stroke-miterlimit="10" fill="none"/><path d="M65.47 139.27l-6.95 8.14" stroke-width="1.2" stroke="#000" stroke-miterlimit="10" fill="none"/><path d="M74.95 126.68h8v13h-8zm0 0" fill="#fff"/><use xlink:href="#a" x="74.949" y="136.581" fill="#00f"/><path d="M61.57 153.535l-26.32-4.87M61.57 153.535l8.942 25.23" stroke-width="1.2" stroke="#000" stroke-miterlimit="10" fill="none"/><path d="M225.594 172.188l6.207-11.856" stroke-width="1.2" stroke="#00f" stroke-miterlimit="10" fill="none"/><path d="M231.8 160.332l6.208-11.86" stroke-width="1.2" stroke="#000" stroke-miterlimit="10" fill="none"/><path d="M221.254 166.895l4.965-9.485" stroke-width="1.2" stroke="#00f" stroke-miterlimit="10" fill="none"/><path d="M226.22 157.41l4.964-9.484" stroke-width="1.2" stroke="#000" stroke-miterlimit="10" fill="none"/><path d="M221.594 165.688h8v13h-8zm0 0" fill="#fff"/><use xlink:href="#a" x="221.594" y="175.589" fill="#00f"/><path d="M238.008 148.473l26.742-1.106" stroke-width="1.2" stroke="#000" stroke-miterlimit="10" fill="none"/></g></svg>
